;FLAVOR:Marlin
;TIME:9348
;Filament used: 11.5885m
;Layer height: 0.3
;MINX:67.222
;MINY:18.9
;MINZ:0.3
;MAXX:148.952
;MAXY:201.1
;MAXZ:105.6
;Generated with Cura_SteamEngine 4.4.1
M140 S35
M105
M190 S35
M104 S220
M105
M109 S220
M82 ;absolute extrusion mode
;https://www.youtube.com/watch?v=LEvmc4FFa90

G28 ;Home
M117 Auto level...
;G29 ;auto level. enable only if you have a probe!
G1 Z15.0 F6000 ;Move the platform down 15mm
G0 X0 Y0 F9000 ; Go to front
G0 Z0.4 ; Drop to bed
G92 E0 ; zero the extruded length
G1 X40 E25 F500 ; Extrude 25mm of filament in a 4cm line
G92 E0 ; zero the extruded length
G1 E-1 F500 ; Retract a little
G1 X80 F4000 ; Quickly wipe away from the filament line

M117 Printing...
G92 E0
G92 E0
G1 F1500 E-3
;LAYER_COUNT:352
;LAYER:0
M107
G1 F600 Z1.3
G0 F3600 X67.407 Y21.4 Z1.3
;TYPE:SKIRT
G1 F600 Z0.3
G1 F1500 E0
G1 F1800 X67.61 Y20.903 E0.03482
G1 X67.884 Y20.442 E0.0696
G1 X68.224 Y20.027 E0.1044
G1 X68.622 Y19.668 E0.13916
G1 X69.068 Y19.371 E0.17391
G1 X69.554 Y19.143 E0.20873
G1 X70.068 Y18.991 E0.24349
G1 X70.731 Y18.91 E0.28681
G1 X71.051 Y18.901 E0.30758
G1 X71.152 Y18.9 E0.31413
G1 X78.166 Y18.9 E0.76904
G1 X78.867 Y18.91 E0.8145
G1 X79.402 Y18.958 E0.84934
G1 X79.923 Y19.084 E0.88411
G1 X80.419 Y19.287 E0.91887
G1 X80.88 Y19.561 E0.95365
G1 X81.296 Y19.9 E0.98845
G1 X81.615 Y20.246 E1.01898
G1 X82.298 Y21.091 E1.08944
G1 X84.074 Y23.225 E1.26951
G1 X85.879 Y25.275 E1.44666
G1 X87.737 Y27.267 E1.62333
G1 X89.64 Y29.197 E1.79912
G1 X91.618 Y31.092 E1.97678
G1 X93.657 Y32.937 E2.15513
G1 X95.71 Y34.693 E2.33034
G1 X97.824 Y36.399 E2.50653
G1 X100.002 Y38.056 E2.68402
G1 X102.215 Y39.644 E2.86068
G1 X104.489 Y41.181 E3.0387
G1 X106.769 Y42.629 E3.21387
G1 X109.144 Y44.044 E3.39317
G1 X111.503 Y45.361 E3.5684
G1 X113.548 Y46.435 E3.71821
G1 X114.871 Y47.11 E3.81454
G1 X114.921 Y47.135 E3.81817
G1 X115.565 Y47.476 E3.86543
G1 X116.019 Y47.762 E3.90023
G1 X116.383 Y48.071 E3.9312
G1 X116.936 Y48.606 E3.9811
G1 X116.979 Y48.647 E3.98496
G1 X128.945 Y60.613 E5.0825
G1 X130.907 Y62.52 E5.25995
G1 X132.723 Y64.193 E5.4201
G1 X133.09 Y64.585 E5.45493
G1 X133.394 Y65.027 E5.48972
G1 X133.537 Y65.3 E5.50971
G1 X133.772 Y65.796 E5.5453
G1 X133.798 Y65.852 E5.54931
G1 X134.446 Y67.282 E5.65113
G1 X135.803 Y70.052 E5.85119
G1 X143.448 Y85.044 E6.94265
G1 X143.472 Y85.09 E6.94602
G1 X143.799 Y85.755 E6.99408
G1 X143.999 Y86.253 E7.02889
G1 X144.115 Y86.729 E7.06066
G1 X144.263 Y87.582 E7.11681
G1 X144.273 Y87.641 E7.12069
G1 X146.845 Y104.105 E8.20145
G1 X147.318 Y106.878 E8.3839
G1 X147.798 Y109.301 E8.5441
G1 X147.863 Y109.833 E8.57886
G1 X147.848 Y110.369 E8.61364
G1 X147.803 Y110.677 E8.63383
G1 X147.632 Y111.57 E8.6928
G1 X147.621 Y111.626 E8.6965
G1 X147.435 Y112.521 E8.75579
G1 X146.848 Y115.882 E8.97707
G1 X144.253 Y132.486 E10.06704
G1 X144.244 Y132.541 E10.07065
G1 X144.123 Y133.243 E10.11685
G1 X143.992 Y133.764 E10.15169
G1 X143.81 Y134.212 E10.18306
G1 X143.433 Y134.984 E10.23878
G1 X143.405 Y135.039 E10.24278
G1 X135.824 Y149.907 E11.32519
G1 X134.597 Y152.399 E11.50535
G1 X133.559 Y154.657 E11.66653
G1 X133.299 Y155.126 E11.70131
G1 X132.973 Y155.551 E11.73605
G1 X132.753 Y155.777 E11.7565
G1 X132.225 Y156.273 E11.80349
G1 X132.183 Y156.312 E11.80721
G1 X131.188 Y157.217 E11.89444
G1 X128.919 Y159.413 E12.09924
G1 X116.919 Y171.413 E13.1999
G1 X116.878 Y171.453 E13.20362
G1 X116.397 Y171.919 E13.24705
G1 X115.985 Y172.262 E13.28182
G1 X115.58 Y172.513 E13.31272
G1 X114.836 Y172.908 E13.36736
G1 X114.783 Y172.935 E13.37121
G1 X113.553 Y173.562 E13.46076
G1 X111.101 Y174.856 E13.64057
G1 X108.731 Y176.194 E13.81709
G1 X106.374 Y177.614 E13.99556
G1 X104.092 Y179.078 E14.1714
G1 X101.858 Y180.604 E14.34687
G1 X99.613 Y182.229 E14.52661
G1 X97.46 Y183.884 E14.70274
G1 X95.361 Y185.594 E14.87833
G1 X93.303 Y187.37 E15.05464
G1 X91.272 Y189.227 E15.23312
G1 X89.33 Y191.104 E15.40829
G1 X87.4 Y193.078 E15.58734
G1 X85.561 Y195.069 E15.76313
G1 X83.782 Y197.11 E15.93873
G1 X82.122 Y199.145 E16.10906
G1 X82.101 Y199.171 E16.11123
G1 X81.589 Y199.787 E16.16318
G1 X81.216 Y200.173 E16.19799
G1 X80.79 Y200.499 E16.23278
G1 X80.321 Y200.758 E16.26753
G1 X79.818 Y200.945 E16.30233
G1 X79.293 Y201.055 E16.33712
G1 X78.974 Y201.083 E16.35789
G1 X78.646 Y201.097 E16.37918
G1 X78.492 Y201.1 E16.38917
G1 X71.483 Y201.1 E16.84376
G1 X70.785 Y201.091 E16.88903
G1 X70.25 Y201.044 E16.92387
G1 X69.729 Y200.918 E16.95863
G1 X69.232 Y200.716 E16.99343
G1 X68.771 Y200.443 E17.02817
G1 X68.355 Y200.104 E17.06298
G1 X67.994 Y199.708 E17.09773
G1 X67.696 Y199.262 E17.13252
G1 X67.468 Y198.776 E17.16734
G1 X67.315 Y198.262 E17.20212
G1 X67.232 Y197.588 E17.24616
G1 X67.223 Y197.255 E17.26777
G1 X67.222 Y197.158 E17.27406
G1 X67.222 Y163.155 E19.4794
G1 X67.232 Y162.457 E19.52468
G1 X67.28 Y161.923 E19.55945
G1 X67.406 Y161.402 E19.59422
G1 X67.609 Y160.905 E19.62904
G1 X67.739 Y160.668 E19.64657
G1 X69.224 Y158.174 E19.83482
G1 X70.56 Y155.777 E20.0128
G1 X71.822 Y153.356 E20.18988
G1 X73.004 Y150.924 E20.36525
G1 X74.132 Y148.427 E20.54296
G1 X75.192 Y145.894 E20.72105
G1 X76.169 Y143.351 E20.89773
G1 X77.07 Y140.796 E21.07344
G1 X77.904 Y138.202 E21.25016
G1 X78.667 Y135.577 E21.42746
G1 X79.344 Y132.968 E21.60228
G1 X79.967 Y130.27 E21.78187
G1 X80.502 Y127.588 E21.95924
G1 X80.957 Y124.931 E22.13408
G1 X81.341 Y122.231 E22.31095
G1 X81.65 Y119.514 E22.48831
G1 X81.88 Y116.798 E22.66509
G1 X82.033 Y114.1 E22.84035
G1 X82.11 Y111.339 E23.0195
G1 X82.11 Y108.643 E23.19435
G1 X82.031 Y105.878 E23.37375
G1 X81.878 Y103.185 E23.5487
G1 X81.647 Y100.468 E23.72555
G1 X81.338 Y97.752 E23.90284
G1 X80.952 Y95.05 E24.07986
G1 X80.496 Y92.389 E24.25496
G1 X79.95 Y89.672 E24.4347
G1 X79.349 Y87.062 E24.60841
G1 X78.659 Y84.406 E24.78639
G1 X77.892 Y81.77 E24.96444
G1 X77.068 Y79.208 E25.13899
G1 X76.15 Y76.609 E25.31776
G1 X75.164 Y74.052 E25.4955
G1 X74.124 Y71.567 E25.67022
G1 X72.991 Y69.059 E25.84871
G1 X71.809 Y66.628 E26.02403
G1 X70.537 Y64.19 E26.20237
G1 X69.221 Y61.833 E26.37746
G1 X68.46 Y60.575 E26.47281
G1 X68.431 Y60.526 E26.47651
G1 X67.733 Y59.329 E26.56638
G1 X67.498 Y58.847 E26.60116
G1 X67.338 Y58.336 E26.63588
G1 X67.244 Y57.589 E26.68471
G1 X67.223 Y56.549 E26.75218
G1 X67.222 Y56.476 E26.75691
G1 X67.222 Y23.12 E28.92029
G1 X67.232 Y22.455 E28.96343
G1 X67.28 Y21.921 E28.9982
G1 X67.407 Y21.4 E29.03298
G0 F3600 X67.806 Y21.468
G1 F1800 X68.008 Y21.004 E29.0658
G1 X68.28 Y20.578 E29.09858
G1 X68.616 Y20.201 E29.13134
G1 X69.007 Y19.88 E29.16415
G1 X69.444 Y19.626 E29.19693
G1 X69.915 Y19.443 E29.2297
G1 X70.41 Y19.337 E29.26254
G1 X70.742 Y19.31 E29.28414
G1 X71.062 Y19.301 E29.3049
G1 X71.152 Y19.3 E29.31074
G1 X78.161 Y19.3 E29.76532
G1 X78.862 Y19.31 E29.81079
G1 X79.365 Y19.357 E29.84356
G1 X79.855 Y19.483 E29.87637
G1 X80.318 Y19.685 E29.90913
G1 X80.745 Y19.957 E29.94197
G1 X81.123 Y20.292 E29.97473
G1 X81.304 Y20.498 E29.99251
G1 X81.991 Y21.347 E30.06335
G1 X83.785 Y23.503 E30.24526
G1 X85.568 Y25.527 E30.4202
G1 X87.443 Y27.538 E30.59852
G1 X89.379 Y29.502 E30.77739
G1 X91.337 Y31.377 E30.95321
G1 X93.394 Y33.238 E31.13312
G1 X95.445 Y34.992 E31.30815
G1 X97.598 Y36.73 E31.48761
G1 X99.766 Y38.38 E31.66431
G1 X101.987 Y39.973 E31.84158
G1 X104.257 Y41.507 E32.01927
G1 X106.571 Y42.977 E32.19707
G1 X108.923 Y44.379 E32.37466
G1 X111.316 Y45.715 E32.55242
G1 X113.335 Y46.775 E32.70031
G1 X114.69 Y47.466 E32.79896
G1 X114.733 Y47.489 E32.80213
G1 X115.377 Y47.83 E32.84939
G1 X115.804 Y48.101 E32.88219
G1 X116.105 Y48.358 E32.90786
G1 X116.658 Y48.893 E32.95776
G1 X116.696 Y48.93 E32.9612
G1 X128.663 Y60.897 E34.05884
G1 X130.641 Y62.819 E34.23772
G1 X132.452 Y64.488 E34.39745
G1 X132.796 Y64.858 E34.43021
G1 X133.176 Y65.471 E34.47699
G1 X133.411 Y65.967 E34.51259
G1 X133.434 Y66.017 E34.51616
G1 X134.086 Y67.457 E34.61868
G1 X135.447 Y70.233 E34.81919
G1 X143.092 Y85.225 E35.91066
G1 X143.113 Y85.267 E35.91371
G1 X143.44 Y85.932 E35.96177
G1 X143.626 Y86.402 E35.99455
G1 X143.721 Y86.797 E36.0209
G1 X143.869 Y87.65 E36.07705
G1 X143.878 Y87.703 E36.08054
G1 X146.458 Y104.217 E37.16458
G1 X146.918 Y106.915 E37.34209
G1 X147.406 Y109.379 E37.505
G1 X147.465 Y109.881 E37.53779
G1 X147.41 Y110.602 E37.58468
G1 X147.239 Y111.495 E37.64365
G1 X147.229 Y111.545 E37.64696
G1 X147.043 Y112.437 E37.70606
G1 X146.453 Y115.82 E37.92878
G1 X143.858 Y132.424 E39.01875
G1 X143.849 Y132.474 E39.02204
G1 X143.728 Y133.176 E39.06824
G1 X143.604 Y133.665 E39.10096
G1 X143.45 Y134.036 E39.12701
G1 X143.073 Y134.808 E39.18273
G1 X143.049 Y134.858 E39.18633
G1 X135.445 Y149.771 E40.27202
G1 X134.232 Y152.234 E40.45009
G1 X133.195 Y154.49 E40.61113
G1 X132.949 Y154.931 E40.64388
G1 X132.479 Y155.485 E40.691
G1 X131.951 Y155.981 E40.73798
G1 X131.913 Y156.016 E40.74133
G1 X130.94 Y156.901 E40.82664
G1 X128.636 Y159.13 E41.03455
G1 X116.636 Y171.13 E42.13522
G1 X116.6 Y171.165 E42.13847
G1 X116.119 Y171.631 E42.18191
G1 X115.729 Y171.953 E42.21471
G1 X115.393 Y172.159 E42.24027
G1 X114.649 Y172.554 E42.29491
G1 X114.601 Y172.579 E42.29842
G1 X113.367 Y173.208 E42.38825
G1 X110.909 Y174.505 E42.5685
G1 X108.507 Y175.861 E42.7474
G1 X106.173 Y177.267 E42.92412
G1 X103.88 Y178.739 E43.10084
G1 X101.619 Y180.282 E43.27838
G1 X99.38 Y181.904 E43.45769
G1 X97.227 Y183.559 E43.63382
G1 X95.093 Y185.297 E43.81232
G1 X93.036 Y187.073 E43.98858
G1 X91.009 Y188.925 E44.16665
G1 X89.031 Y190.837 E44.34508
G1 X87.119 Y192.792 E44.52243
G1 X85.272 Y194.793 E44.69905
G1 X83.481 Y196.847 E44.87579
G1 X81.812 Y198.893 E45.04704
G1 X81.793 Y198.915 E45.04893
G1 X81.281 Y199.531 E45.10088
G1 X80.928 Y199.894 E45.13372
G1 X80.523 Y200.195 E45.16645
G1 X80.075 Y200.43 E45.19926
G1 X79.595 Y200.591 E45.23209
G1 X78.956 Y200.683 E45.27396
G1 X78.628 Y200.697 E45.29526
G1 X78.492 Y200.7 E45.30408
G1 X71.488 Y200.7 E45.75834
G1 X70.79 Y200.691 E45.80361
G1 X70.286 Y200.644 E45.83644
G1 X69.796 Y200.519 E45.86924
G1 X69.332 Y200.318 E45.90204
G1 X68.906 Y200.047 E45.93478
G1 X68.527 Y199.712 E45.96759
G1 X68.206 Y199.321 E46.0004
G1 X67.951 Y198.885 E46.03316
G1 X67.767 Y198.414 E46.06596
G1 X67.66 Y197.92 E46.09874
G1 X67.632 Y197.577 E46.12106
G1 X67.623 Y197.244 E46.14266
G1 X67.622 Y197.158 E46.14824
G1 X67.622 Y163.161 E48.35319
G1 X67.632 Y162.463 E48.39847
G1 X67.679 Y161.96 E48.43123
G1 X67.805 Y161.47 E48.46405
G1 X68.082 Y160.872 E48.50679
G1 X69.573 Y158.367 E48.69586
G1 X70.918 Y155.956 E48.87492
G1 X72.179 Y153.538 E49.05179
G1 X73.371 Y151.084 E49.22873
G1 X74.488 Y148.61 E49.40478
G1 X75.575 Y146.015 E49.58726
G1 X76.532 Y143.523 E49.76039
G1 X77.452 Y140.915 E49.93975
G1 X78.283 Y138.33 E50.11586
G1 X79.055 Y135.675 E50.29519
G1 X79.736 Y133.053 E50.47088
G1 X80.362 Y130.341 E50.6514
G1 X80.889 Y127.697 E50.82626
G1 X81.355 Y124.978 E51.00518
G1 X81.736 Y122.3 E51.18061
G1 X82.047 Y119.557 E51.35966
G1 X82.279 Y116.819 E51.53787
G1 X82.433 Y114.099 E51.71457
G1 X82.51 Y111.351 E51.89286
G1 X82.51 Y108.632 E52.06921
G1 X82.431 Y105.878 E52.2479
G1 X82.275 Y103.132 E52.42629
G1 X82.045 Y100.422 E52.60268
G1 X81.737 Y97.717 E52.77925
G1 X81.349 Y94.996 E52.95752
G1 X80.883 Y92.28 E53.13624
G1 X80.347 Y89.609 E53.31293
G1 X79.741 Y86.976 E53.48816
G1 X79.047 Y84.308 E53.66696
G1 X78.271 Y81.642 E53.84705
G1 X77.436 Y79.046 E54.02391
G1 X76.53 Y76.479 E54.20046
G1 X75.548 Y73.933 E54.37745
G1 X74.481 Y71.384 E54.55667
G1 X73.371 Y68.926 E54.73159
G1 X72.151 Y66.419 E54.91242
G1 X70.898 Y64.017 E55.08813
G1 X69.566 Y61.633 E55.26524
G1 X68.802 Y60.368 E55.36109
G1 X68.777 Y60.325 E55.36432
G1 X68.079 Y59.128 E55.45419
G1 X67.859 Y58.672 E55.48702
G1 X67.714 Y58.188 E55.51979
G1 X67.644 Y57.581 E55.55942
G1 X67.623 Y56.541 E55.62689
G1 X67.622 Y56.476 E55.6311
G1 X67.622 Y23.126 E57.79409
G1 X67.632 Y22.461 E57.83723
G1 X67.68 Y21.958 E57.87
G1 X67.806 Y21.468 E57.90281
G1 F1500 E54.90281
G1 F600 Z1.3
;MESH:mold.stl
G0 F3600 X77.422 Y39.147 Z1.3
;TYPE:WALL-INNER
G1 F600 Z0.3
G1 F1500 E57.90281
G1 F1800 X92.692 Y41.533 E58.9052
G1 X93.055 Y41.517 E58.92877
G1 X93.338 Y41.743 E58.95226
G1 X113.057 Y51.797 E60.38782
G1 X128.779 Y67.519 E61.82987
G1 X129.083 Y67.718 E61.85344
G1 X129.179 Y68.069 E61.87704
G1 X139.236 Y87.789 E63.31275
G1 X142.652 Y109.658 E64.74831
G1 X142.782 Y110.001 E64.7721
G1 X142.653 Y110.342 E64.79575
G1 X139.236 Y132.211 E66.23132
G1 X129.179 Y151.931 E67.66703
G1 X129.083 Y152.282 E67.69063
G1 X128.779 Y152.481 E67.71419
G1 X113.057 Y168.203 E69.15625
G1 X93.338 Y178.257 E70.59181
G1 X93.057 Y178.481 E70.61512
G1 X92.696 Y178.463 E70.63856
G1 X77.422 Y180.853 E71.64124
G1 X77.422 Y196.1 E72.63012
G1 X72.222 Y196.1 E72.96738
G1 X72.222 Y163.857 E75.05857
G1 X74.207 Y163.793 E75.18738
G1 X77.577 Y163.476 E75.40691
G1 X80.922 Y162.946 E75.62657
G1 X84.227 Y162.209 E75.84619
G1 X87.48 Y161.264 E76.06589
G1 X90.664 Y160.115 E76.28543
G1 X93.771 Y158.77 E76.50501
G1 X96.79 Y157.234 E76.7247
G1 X99.702 Y155.51 E76.94418
G1 X102.504 Y153.607 E77.16386
G1 X105.18 Y151.53 E77.38356
G1 X107.72 Y149.293 E77.60308
G1 X110.115 Y146.898 E77.82276
G1 X112.352 Y144.358 E78.04227
G1 X114.43 Y141.682 E78.26202
G1 X116.333 Y138.88 E78.4817
G1 X118.057 Y135.967 E78.70123
G1 X119.593 Y132.948 E78.92092
G1 X120.938 Y129.841 E79.14051
G1 X122.086 Y126.657 E79.36002
G1 X123.031 Y123.406 E79.5796
G1 X123.769 Y120.1 E79.7993
G1 X124.298 Y116.755 E80.01894
G1 X124.616 Y113.384 E80.23855
G1 X124.722 Y110 E80.45813
G1 X124.616 Y106.616 E80.67771
G1 X124.298 Y103.245 E80.89732
G1 X123.769 Y99.9 E81.11696
G1 X123.031 Y96.594 E81.33666
G1 X122.086 Y93.343 E81.55624
G1 X120.938 Y90.159 E81.77575
G1 X119.593 Y87.052 E81.99534
G1 X118.057 Y84.033 E82.21503
G1 X116.333 Y81.12 E82.43456
G1 X114.43 Y78.318 E82.65424
G1 X112.352 Y75.642 E82.87399
G1 X110.115 Y73.102 E83.0935
G1 X107.72 Y70.707 E83.31318
G1 X105.18 Y68.47 E83.5327
G1 X102.504 Y66.393 E83.7524
G1 X99.702 Y64.49 E83.97208
G1 X96.79 Y62.766 E84.19156
G1 X93.771 Y61.23 E84.41125
G1 X90.664 Y59.885 E84.63083
G1 X87.48 Y58.736 E84.85037
G1 X84.227 Y57.791 E85.07007
G1 X80.922 Y57.054 E85.28969
G1 X77.577 Y56.524 E85.50935
G1 X74.207 Y56.207 E85.72888
G1 X72.222 Y56.143 E85.85769
G1 X72.222 Y23.9 E87.94888
G1 X77.422 Y23.9 E88.28614
G1 X77.422 Y39.147 E89.27502
G0 F3600 X77.822 Y38.805
G1 F1800 X92.714 Y41.132 E90.25259
G1 X93.187 Y41.111 E90.2833
G1 X93.556 Y41.405 E90.3139
G1 X113.296 Y51.47 E91.751
G1 X129.033 Y67.207 E93.19443
G1 X129.429 Y67.466 E93.22512
G1 X129.554 Y67.924 E93.25591
G1 X139.621 Y87.664 E94.69307
G1 X143.041 Y109.555 E96.13008
G1 X143.21 Y110 E96.16095
G1 X143.042 Y110.445 E96.1918
G1 X139.621 Y132.336 E97.62883
G1 X129.554 Y152.076 E99.06598
G1 X129.429 Y152.534 E99.09678
G1 X129.033 Y152.793 E99.12746
G1 X113.296 Y168.53 E100.57089
G1 X93.556 Y178.595 E102.00799
G1 X93.188 Y178.888 E102.0385
G1 X92.717 Y178.865 E102.06909
G1 X77.822 Y181.195 E103.04688
G1 X77.822 Y196.5 E104.03952
G1 X71.822 Y196.5 E104.42867
G1 X71.822 Y163.47 E106.5709
G1 X74.182 Y163.394 E106.72405
G1 X77.527 Y163.079 E106.94195
G1 X80.847 Y162.553 E107.15996
G1 X84.128 Y161.821 E107.37799
G1 X87.356 Y160.883 E107.59601
G1 X90.517 Y159.743 E107.81395
G1 X93.601 Y158.408 E108.03191
G1 X96.597 Y156.883 E108.24994
G1 X99.488 Y155.172 E108.46782
G1 X102.269 Y153.283 E108.68587
G1 X104.925 Y151.222 E108.90391
G1 X107.446 Y149.001 E109.12181
G1 X109.823 Y146.624 E109.33984
G1 X112.044 Y144.103 E109.55775
G1 X114.106 Y141.447 E109.77583
G1 X115.995 Y138.666 E109.99387
G1 X117.706 Y135.774 E110.2118
G1 X119.231 Y132.778 E110.42984
G1 X120.566 Y129.694 E110.6478
G1 X121.705 Y126.533 E110.86571
G1 X122.643 Y123.306 E111.08367
G1 X123.376 Y120.025 E111.30171
G1 X123.901 Y116.705 E111.51971
G1 X124.217 Y113.359 E111.73769
G1 X124.322 Y110 E111.95565
G1 X124.217 Y106.641 E112.17362
G1 X123.901 Y103.295 E112.39159
G1 X123.376 Y99.975 E112.6096
G1 X122.643 Y96.694 E112.82764
G1 X121.705 Y93.467 E113.0456
G1 X120.566 Y90.306 E113.26351
G1 X119.231 Y87.222 E113.48147
G1 X117.706 Y84.226 E113.6995
G1 X115.995 Y81.334 E113.91744
G1 X114.106 Y78.553 E114.13548
G1 X112.044 Y75.897 E114.35356
